X:1
T:The Coast of Peru
M:3/4
L:1/4
K:F
 z2F/2-E/2| DD/2-^C/2D/2-G/2| B B G| FF/2-E/2F/2-A/2| c2 c| d c A|\
 d c A| AA/2-G/2F/2-A/2| G2 d| c A G| F F d/2d/2| c/2c/2A/2-G/2F/2-A/2|\
 G2 C/2C/2| F/2F/2 A d| c A F| G D E| F2 z|
